X:1
T:Donald Dow
T:Donald Dow
T:Donald Dow
C:Donald Dow
L:1/8
Q:1/8=128
M:4/4
K:F
V:1 treble 
V:1
|: d | c>F d/c/B/A/ cF Fd | c<A f>A cG G>d | c>F d/c/B/A/ cA A>f | e>d ec f2 fd | %5
 c>F d/c/B/A/ cF Fd | c<A f>A cG G>d | c>F d/c/B/A/ cA A>f | e>d ec f2 fd | c<A f>A cf Af | %10
 c<A f>A cG G>d | c<A f>A cf Af | e>d ec f2 f>d | c<A f>A cf Af | c<A f>A cG G>B | A>G AF Ac cf | %16
 e>d ec f2 f :| %17

